packages/core/src/svgs/planets.svg

<svg width="24" height="24" viewBox="0 0 24 24" fill="none" xmlns="http://www.w3.org/2000/svg">
<g clip-path="url(#clip0_31_16069)">
<path d="M0 0H24V24H0V0Z" fill="url(#paint0_linear_31_16069)"/>
<path fill-rule="evenodd" clip-rule="evenodd" d="M11.8371 6.85693C8.06569 6.85693 4.8814 9.33836 3.33855 11.0998C3.13959 11.3221 3.02126 11.6049 3.0026 11.9027C2.98394 12.2004 3.06605 12.4958 3.23569 12.7412C4.21969 14.1023 5.51222 15.2108 7.00735 15.9758C8.50247 16.7409 10.1576 17.1408 11.8371 17.1426C16.2943 17.1426 19.3928 14.4684 20.7814 12.6298C21.1028 12.2012 21.0643 11.6141 20.7 11.2284C19.0543 9.45836 15.6943 6.85693 11.8371 6.85693ZM11.8585 7.71408C8.00998 7.71408 4.85998 10.5041 3.85712 11.9055C4.39283 12.9555 5.9914 14.7769 8.52855 15.7026C6.99426 14.3226 6.92141 12.1669 7.08855 11.2326L7.91998 10.6755C7.64542 11.7794 7.71268 12.9407 8.11283 14.0055C8.48569 15.0341 9.5614 15.7626 10.5085 16.1912C10.9371 16.2555 11.3871 16.2855 11.8585 16.2855C16.3371 16.2855 19.2428 13.3712 20.1428 11.9141C19.4357 11.0569 17.9357 9.68122 15.9985 8.73836C17.1857 10.1098 17.2328 11.9912 17.0828 12.8441L16.2514 13.4012C16.526 12.2973 16.4587 11.136 16.0585 10.0712C15.7028 9.08979 14.7043 8.38265 13.7871 7.94122C13.155 7.7921 12.508 7.71589 11.8585 7.71408Z" fill="#87DD3A"/>
<path d="M17.3315 11.0012C17.8029 11.3441 18.18 11.6784 18.4286 11.9441C17.7258 12.9341 15.4372 14.9226 11.9143 14.9226C10.7186 14.9226 9.67718 14.6912 8.79861 14.3484C9.10718 14.7598 9.44575 15.1198 9.74147 15.4026C10.4058 15.5569 11.1258 15.6426 11.8972 15.6426C15.4886 15.6426 17.9829 13.7569 19.11 12.4584C19.3672 12.1584 19.3372 11.7169 19.05 11.4512C18.4543 10.8974 17.8055 10.4035 17.1129 9.97693C17.2243 10.3241 17.2929 10.6926 17.3272 11.0012H17.3315ZM14.3743 8.72979C13.5709 8.48677 12.7365 8.36119 11.8972 8.35693C8.74718 8.35693 6.10289 10.2384 4.91147 11.4898C4.79593 11.6081 4.7264 11.7637 4.71541 11.9287C4.70441 12.0937 4.75265 12.2572 4.85147 12.3898C5.46111 13.168 6.2112 13.8251 7.06289 14.3269C6.93432 13.9541 6.80575 13.5255 6.69432 13.1141C6.18004 12.6855 5.82004 12.2569 5.63147 11.9355C6.42004 10.9798 8.89289 9.07693 11.9186 9.07693C13.2472 9.07693 14.49 9.44551 15.5486 9.94265C15.2217 9.48054 14.8256 9.07148 14.3743 8.72979Z" fill="#0447AF"/>
<path d="M12.4286 11.1429C12.4846 11.1422 12.54 11.1306 12.5915 11.1086C12.7458 11.3572 12.84 11.6529 12.84 11.9957C12.84 12.2357 12.8015 12.4543 12.7372 12.6514C12.3815 12.8317 11.9801 12.9018 11.5843 12.8529C11.3937 12.7481 11.2178 12.6184 11.0615 12.4672C11.1251 12.3798 11.1533 12.2717 11.1406 12.1644C11.1279 12.0572 11.0751 11.9586 10.9929 11.8886C11.2154 11.4468 11.5853 11.0966 12.0386 10.8986C12.0737 10.9722 12.129 11.0343 12.198 11.0775C12.2671 11.1208 12.3471 11.1435 12.4286 11.1429ZM13.0672 12C13.0678 12.2583 13.0243 12.5149 12.9386 12.7586C13.0115 12.8314 13.0629 12.93 13.0672 13.0372C13.446 12.9175 13.7951 12.7189 14.0915 12.4543C14.164 12.1204 14.1559 11.7741 14.068 11.4439C13.9801 11.1138 13.8148 10.8093 13.5858 10.5557C13.3715 10.5686 13.1143 10.5986 12.8529 10.6457C12.8614 10.703 12.8581 10.7614 12.8434 10.8174C12.8287 10.8733 12.8027 10.9258 12.7672 10.9714C12.9515 11.2543 13.0672 11.5972 13.0672 12ZM13.3672 10.3457C13.1829 10.3629 12.9815 10.3886 12.78 10.4314L12.7543 10.4357C12.686 10.3556 12.5905 10.3035 12.4862 10.2892C12.3818 10.275 12.2759 10.2997 12.1886 10.3586C11.9478 10.1842 11.6838 10.0443 11.4043 9.94288C11.7389 9.84573 12.0922 9.83165 12.4335 9.90185C12.7748 9.97205 13.0938 10.1244 13.3629 10.3457H13.3672ZM11.07 10.0672C10.8558 10.1743 10.6586 10.3114 10.4915 10.4786C10.4186 10.8129 10.4058 11.31 10.6115 11.7986C10.6705 11.7844 10.7318 11.783 10.7915 11.7943C11.0445 11.2846 11.4739 10.8841 12 10.6672C12.0052 10.6196 12.0182 10.5733 12.0386 10.53C11.7447 10.3186 11.4152 10.1618 11.0658 10.0672H11.07ZM10.2215 10.8043C10.2043 11.1343 10.2472 11.5243 10.4143 11.91C10.3671 11.9563 10.3313 12.0128 10.3096 12.0753C10.2879 12.1377 10.2809 12.2043 10.2892 12.2699C10.2975 12.3354 10.3208 12.3982 10.3574 12.4532C10.394 12.5083 10.4428 12.5541 10.5 12.5872C10.4358 12.8786 10.3972 13.1614 10.3886 13.41C10.0762 13.0555 9.89034 12.6073 9.86009 12.1357C9.82984 11.6641 9.95695 11.1959 10.2215 10.8043ZM10.6072 13.6329C10.8429 13.83 11.1215 13.98 11.43 14.0657C11.6743 13.9414 12.0343 13.7143 12.33 13.3629C12.3193 13.3506 12.3093 13.3377 12.3 13.3243C12.0088 13.2891 11.7275 13.1958 11.4729 13.05C11.2372 12.9172 11.0443 12.7672 10.8858 12.6086C10.8329 12.6311 10.7761 12.6428 10.7186 12.6429C10.6329 13.0029 10.6029 13.3586 10.6072 13.6286V13.6329ZM11.7729 14.13C12.2287 14.1791 12.6882 14.0807 13.0839 13.8492C13.4797 13.6178 13.7907 13.2656 13.9715 12.8443C13.6825 13.0486 13.3586 13.1982 13.0158 13.2857C12.9677 13.3692 12.8929 13.434 12.8035 13.4698C12.7141 13.5056 12.6153 13.5102 12.5229 13.4829C12.3089 13.7371 12.0557 13.9556 11.7729 14.13Z" fill="#0447AF"/>
</g>
<defs>
<linearGradient id="paint0_linear_31_16069" x1="12" y1="0" x2="12" y2="24" gradientUnits="userSpaceOnUse">
<stop stop-color="#D8ECF5"/>
<stop offset="1" stop-color="#F4F9FC"/>
</linearGradient>
<clipPath id="clip0_31_16069">
<rect width="24" height="24" fill="white"/>
</clipPath>
</defs>
</svg>

<svg xmlns="http://www.w3.org/2000/svg" width="24" height="24" fill="none" viewBox="0 0 24 24"><g clip-path="url(#a)"><path fill="url(#b)" d="M0 0h24v24H0z"/><path fill="#87DD3A" fill-rule="evenodd" d="M11.837 6.857c-3.771 0-6.956 2.481-8.498 4.243a1.33 1.33 0 0 0-.103 1.641 10.63 10.63 0 0 0 8.601 4.402c4.457 0 7.556-2.675 8.944-4.513a1.085 1.085 0 0 0-.081-1.402c-1.646-1.77-5.006-4.371-8.863-4.371m.021.857c-3.848 0-6.998 2.79-8 4.192.535 1.05 2.133 2.87 4.67 3.797-1.534-1.38-1.607-3.536-1.44-4.47l.832-.558a5.6 5.6 0 0 0 .193 3.33c.373 1.03 1.448 1.758 2.396 2.186q.642.096 1.35.095c4.478 0 7.384-2.915 8.284-4.372-.707-.857-2.207-2.233-4.145-3.176 1.188 1.372 1.235 3.253 1.085 4.106l-.832.557a5.6 5.6 0 0 0-.193-3.33c-.355-.981-1.354-1.688-2.27-2.13a8.5 8.5 0 0 0-1.93-.227" clip-rule="evenodd"/><path fill="#0447AF" d="M17.332 11.001a8 8 0 0 1 1.097.943c-.703.99-2.992 2.979-6.515 2.979a8.5 8.5 0 0 1-3.115-.575c.308.412.647.772.942 1.055.665.154 1.385.24 2.156.24 3.592 0 6.086-1.886 7.213-3.185a.724.724 0 0 0-.06-1.007 12.4 12.4 0 0 0-1.937-1.474c.111.347.18.716.214 1.024zM14.373 8.73a8.7 8.7 0 0 0-2.477-.373c-3.15 0-5.794 1.881-6.986 3.133a.694.694 0 0 0-.06.9 7.9 7.9 0 0 0 2.212 1.937 19 19 0 0 1-.369-1.213c-.514-.429-.874-.857-1.063-1.179.789-.955 3.262-2.858 6.288-2.858 1.328 0 2.571.369 3.63.866a5.5 5.5 0 0 0-1.175-1.213"/><path fill="#0447AF" d="M12.429 11.143a.4.4 0 0 0 .162-.034c.155.248.249.544.249.887 0 .24-.038.458-.103.655-.355.18-.757.25-1.153.202a2.5 2.5 0 0 1-.522-.386.43.43 0 0 0-.07-.578 2.12 2.12 0 0 1 1.047-.99.43.43 0 0 0 .39.244m.638.857c0 .258-.043.515-.128.759a.42.42 0 0 1 .128.278c.379-.12.728-.318 1.024-.583a2.15 2.15 0 0 0-.505-1.898 6 6 0 0 0-.733.09.43.43 0 0 1-.086.325c.184.283.3.626.3 1.029m.3-1.654a5 5 0 0 0-.587.085l-.026.005a.43.43 0 0 0-.565-.077 3.2 3.2 0 0 0-.785-.416 2.14 2.14 0 0 1 1.959.403zm-2.297-.279a2.2 2.2 0 0 0-.578.412 2.25 2.25 0 0 0 .12 1.32.4.4 0 0 1 .18-.005c.252-.51.682-.91 1.208-1.127a.4.4 0 0 1 .039-.137 3 3 0 0 0-.973-.463zm-.848.737c-.018.33.025.72.192 1.106a.428.428 0 0 0 .086.677 4.7 4.7 0 0 0-.111.823 2.134 2.134 0 0 1-.167-2.606m.385 2.829a2.2 2.2 0 0 0 .823.433c.244-.125.604-.352.9-.703l-.03-.039a2.2 2.2 0 0 1-.827-.274 2.7 2.7 0 0 1-.587-.441.4.4 0 0 1-.167.034c-.086.36-.116.716-.112.986zm1.166.497a2.14 2.14 0 0 0 2.199-1.286 2.9 2.9 0 0 1-.956.442.43.43 0 0 1-.493.197 3.1 3.1 0 0 1-.75.647"/></g><defs><linearGradient id="b" x1="12" x2="12" y1="0" y2="24" gradientUnits="userSpaceOnUse"><stop stop-color="#D8ECF5"/><stop offset="1" stop-color="#F4F9FC"/></linearGradient><clipPath id="a"><path fill="#fff" d="M0 0h24v24H0z"/></clipPath></defs></svg>
